X: 05082
T: STUART'S JIG
C: Bob McQuillen 26 Feb 81
B: Bob's Note Book 5 #82
%R: jig
Z: 2021 John Chambers <jc:trillian.mit.edu>
M: 6/8
L: 1/8
K: Em
E \
| B,EF GBA | G2E GBe | dBG ABA | GAG GED |\
| B,EF GBA | GEE E2e | ede ged | BAA A2 :|
|: d \
| ege geB | ded BAG | ede geB | dBA GEE |\
| GAB dBA | ABd e2g | geg dBA | BEE E2 :|
%%begintext align
%% Kenney's cheerful presence adds
%% a lot to our contradances -
%% Best always, Stuart -
%%endtext

%%sep 1 1 500

%%sep 1 1 500

